!!!OTL: 409. Haeschen in der Grube.
!!!ARE: Europa, Mitteleuropa, Deutschland
!!!SCT: K2409
!!!TXL: @@DE
!!!YEM: Copyright 1995, estate of Helmut Schaffrath.
**kern	**text
*clefG2	*
*M2/4	*
*k[b-]	*
*F:	*
=1	=1
{8f	Häs-
8g	-chen
8a	in
8b-	der
=2	=2
4cc	Gru-
4cc}	-be,
=3	=3
{4dd	ſaß
8ffL	und
8ddJ	.
=4	=4
4cc	ſchlief.
4r}	.
=5	=5
{8cc	Ar-
8b-	-mes
8b-	Häs-
8b-	-chen
=6	=6
8b-/	biſt
8a	du
4a}	krank,
=7	=7
{8a	daß
8g	du
8g	nicht
8g	mehr
=8	=8
8g	hüpfen
8f	.
4f}	kannſt?
=9	=9
{8f	Häschen
8a	.
4cc	hüpf,
=10	=10
8cc	Häs-
8a	-chen
4f}	hüpf!
==	==
!!!AGN: Kinder - Lied, Tanz -, Lauf - Spiel
!!!ONB: ESAC (Essen Associative Code) Database: KINDER
!!!AMT: simple duple
!!!AIN: vox
!!!EED: Helmut Schaffrath
!!!EEV: 1.0
!!!GTL: Zweites Buch. Kinderspiel: 3. Lauf-, Sprung- und Haschenspiele.
!!Alte Volksweise: "Wer die Gans gestohlen hat."
!!Mit dem Text wie hier zuerst bei Froebel.
!!!URL-scan: https://archive.org/details/DeutschesKinderliedUndKinderspiel/page/577/mode/1up
!!!ENC: Anna Maria Matuszewska
!!!EEV: 2024/05/09
*-	*-
